modules/web-icons/icons/grid-4.svg

<svg xmlns="http://www.w3.org/2000/svg" width="64" height="64" viewBox="0 0 64 64"><path d="M56 60.001H40c-2.209 0-4-1.792-4-4.001V39.999a4 4 0 0 1 4-4h16a4 4 0 0 1 4 4V56a4 4 0 0 1-4 4.001zm0-32.002H40a4 4 0 0 1-4-3.998v-16a4 4 0 0 1 4-4.002h16a4 4 0 0 1 4 4.002v16.001a3.998 3.998 0 0 1-4 3.997zM24 60.001H8A4 4 0 0 1 4 56V39.999a4 4 0 0 1 4-4h16a4 4 0 0 1 4 4V56a4 4 0 0 1-4 4.001zm0-32.002H8c-2.21 0-4-1.79-4-3.998v-16a4 4 0 0 1 4-4.002h16c2.209 0 4 1.792 4 4.002v16.001a3.998 3.998 0 0 1-4 3.997z" fill-rule="evenodd" clip-rule="evenodd"/></svg>

<svg xmlns="http://www.w3.org/2000/svg" width="64" height="64" viewBox="0 0 64 64"><style>.st0{fill-rule:evenodd;clip-rule:evenodd}</style><path class="st0" d="M56,60.001H40c-2.209,0-4-1.792-4-4.001V39.999c0-2.208,1.791-4,4-4h16c2.21,0,4,1.792,4,4V56 C60,58.21,58.21,60.001,56,60.001z M56,27.999H40c-2.209,0-4-1.79-4-3.998V8.001c0-2.211,1.791-4.002,4-4.002h16 c2.21,0,4,1.792,4,4.002v16.001C60,26.21,58.21,27.999,56,27.999z M24,60.001H8c-2.21,0-4-1.792-4-4.001V39.999c0-2.208,1.79-4,4-4 h16c2.209,0,4,1.792,4,4V56C28,58.21,26.209,60.001,24,60.001z M24,27.999H8c-2.21,0-4-1.79-4-3.998V8.001 C4,5.79,5.79,3.999,8,3.999h16c2.209,0,4,1.792,4,4.002v16.001C28,26.21,26.209,27.999,24,27.999z" id="grid-4"/></svg>
